X:3
T:The Ash Grove
C:Welsh traditional
M:3/4
K:G
L:1/8
D2 |: "G" G2 B2 dc | B2 G2 G2 | "Am" AB cB AG | "D7" F2 D2 D2 |
"G" GA BA GF | "C" E2 C2 E2 | "G" D2 G2 "D7" F2 |1 "G" (G4 GD) :|2 "G" G4 Bc ||
"G" d2 Bc de | d2 c2 B2 | "Am" c2 AB cd | "D7" c2 B2 A2 |
"G" B2 GA Bc | "Em" B2 A2 G2 | "D" D2 d2 "A7" ^c2 | "D7" d4 D2 |
"G" G2 B2 dc | B2 G2 G2 | "Am" AB cB AG | "D7" F2 D2 D2 |
"G" GA BA GF | "C" E2 C2 E2 | "G" D2 G2 "D7" F2 | "G" G4 |]

